villages/Otogakure_Symbol.svg

<svg xmlns:dc="http://purl.org/dc/elements/1.1/" xmlns:cc="http://creativecommons.org/ns#" xmlns:rdf="http://www.w3.org/1999/02/22-rdf-syntax-ns#" xmlns:svg="http://www.w3.org/2000/svg" xmlns="http://www.w3.org/2000/svg" xmlns:sodipodi="http://sodipodi.sourceforge.net/DTD/sodipodi-0.dtd" xmlns:inkscape="http://www.inkscape.org/namespaces/inkscape" version="1.0" width="100" height="100" id="svg2211" sodipodi:version="0.32" inkscape:version="0.46" sodipodi:docname="Village Symbol Otogakure.svg" inkscape:output_extension="org.inkscape.output.svg.inkscape">
    <metadata id="metadata9">
        <rdf:RDF>
            <cc:Work rdf:about="">
                <dc:format>image/svg+xml</dc:format>
                <dc:type rdf:resource="http://purl.org/dc/dcmitype/StillImage"/>
            </cc:Work>
        </rdf:RDF>
    </metadata>
    <sodipodi:namedview inkscape:window-height="930" inkscape:window-width="1280" inkscape:pageshadow="2" inkscape:pageopacity="0.0" guidetolerance="10.0" gridtolerance="10.0" objecttolerance="10.0" borderopacity="1.0" bordercolor="#666666" pagecolor="#ffffff" id="base" showgrid="false" inkscape:zoom="2" inkscape:cx="-38.346389" inkscape:cy="129.06592" inkscape:window-x="-4" inkscape:window-y="-4" inkscape:current-layer="svg2211" showguides="true" inkscape:guide-bbox="true">
        <inkscape:grid type="xygrid" id="grid3154" visible="true" enabled="true"/>
    </sodipodi:namedview>
    <defs id="defs2214">
        <inkscape:perspective sodipodi:type="inkscape:persp3d" inkscape:vp_x="0 : 50 : 1" inkscape:vp_y="0 : 1000 : 0" inkscape:vp_z="100 : 50 : 1" inkscape:persp3d-origin="50 : 33.333333 : 1" id="perspective10"/>
        <inkscape:perspective id="perspective2390" inkscape:persp3d-origin="372.04724 : 350.78739 : 1" inkscape:vp_z="744.09448 : 526.18109 : 1" inkscape:vp_y="0 : 1000 : 0" inkscape:vp_x="0 : 526.18109 : 1" sodipodi:type="inkscape:persp3d"/>
    </defs>
    <path style="opacity:1;fill:#000000;fill-opacity:1;fill-rule:nonzero;stroke:#000000;stroke-width:5.69906378;stroke-linecap:round;stroke-linejoin:round;marker:none;marker-start:none;marker-mid:none;marker-end:none;stroke-miterlimit:4;stroke-dasharray:none;stroke-dashoffset:0;stroke-opacity:1;visibility:visible;display:inline;overflow:visible;enable-background:accumulate" d="M 39.118464,68.684186 L 41.951356,11.099466" id="path3168"/>
    <path style="opacity:1;fill:#000000;fill-opacity:1;fill-rule:nonzero;stroke:#000000;stroke-width:5.69906378;stroke-linecap:round;stroke-linejoin:round;marker:none;marker-start:none;marker-mid:none;marker-end:none;stroke-miterlimit:4;stroke-dasharray:none;stroke-dashoffset:0;stroke-opacity:1;visibility:visible;display:inline;overflow:visible;enable-background:accumulate" d="M 17.871785,97.029466 C 17.535824,90.348796 21.040121,84.647786 25.927819,78.877756 C 30.815519,73.107706 34.810102,71.545536 39.02993,70.651366 C 39.826689,76.940376 36.138026,82.394826 32.567413,87.104136 C 28.996791,91.813446 22.79984,98.102456 17.871785,97.029466 z" id="path3170" sodipodi:nodetypes="czczc"/>
    <path style="opacity:1;fill:#000000;fill-opacity:1;fill-rule:nonzero;stroke:none;stroke-width:5.71199989;stroke-linecap:round;stroke-linejoin:round;marker:none;marker-start:none;marker-mid:none;marker-end:none;stroke-miterlimit:4;stroke-dasharray:none;stroke-dashoffset:0;stroke-opacity:0.50196078;visibility:visible;display:inline;overflow:visible;enable-background:accumulate" d="M 39.331951,2.4755564 C 40.50206,-1.4825236 50.06777,-0.4307236 56.167999,3.7617364 C 62.268226,7.9541864 65.464787,7.2752964 72.027353,7.5769164 C 78.589918,7.8785364 86.318967,14.564716 84.809148,22.931276 C 83.299328,31.297856 77.001501,39.507756 76.122491,38.473666 C 77.166955,36.123526 81.355165,26.660206 79.411011,20.612466 C 77.448621,14.507996 73.93256,15.496766 64.457552,14.909406 C 54.982543,14.322056 56.399615,14.351086 50.496852,11.775856 C 44.594089,9.2006262 38.935537,15.668423 38.973151,14.416596 L 39.331951,2.4755564 z" id="path3172" sodipodi:nodetypes="czzzczzzsc"/>
</svg>

<svg xmlns="http://www.w3.org/2000/svg" version="1" width="100" height="100">
    <path d="M39.118 68.684L41.95 11.1M17.872 97.03c-.336-6.68 3.168-12.382 8.056-18.152 4.888-5.77 8.882-7.332 13.102-8.227.797 6.29-2.892 11.745-6.463 16.454-3.57 4.71-9.767 10.998-14.695 9.925z" stroke="#000" stroke-width="5.699" stroke-linecap="round" stroke-linejoin="round" overflow="visible"/>
    <path d="M39.332 2.476c1.17-3.96 10.736-2.907 16.836 1.286 6.1 4.192 9.297 3.513 15.86 3.815 6.562.302 14.29 6.988 12.78 15.354-1.51 8.368-7.806 16.578-8.686 15.544 1.045-2.35 5.233-11.814 3.29-17.862-1.963-6.104-5.48-5.115-14.954-5.703-9.475-.588-8.058-.56-13.96-3.134-5.904-2.575-11.562 3.892-11.525 2.64l.36-11.94z" stroke-width="5.712" stroke-linecap="round" stroke-linejoin="round" stroke-opacity=".502" overflow="visible"/>
</svg>
